X:1
T:Helas amours
T:Helas amours
T:Jean Le Cocq
C:Jean Le Cocq
%%score [ 1 [ 2 3 ] 4 ]
L:1/8
Q:1/4=100
M:2/2
K:F
V:1 treble nm="Superius" snm="S"
V:2 treble-8 nm="Tenor 1" snm="T 1"
V:3 treble-8 nm="Tenor 2" snm="T 2"
V:4 bass nm="Bassus" snm="B"
V:1
 A8 | B4 G4- | G2 FE F2 F2 | F4 E4 | D8 | z2 D2 F2 F2 | G2 B2 A4 | z2 D2 F2 F2 | G2 B2 A2 A2 | %9
w: He-|las a-|* * * mours, he-|las a-|mours,|d'où vient ces-|tui tour- ment,|d'où vient ces-|tui tour- ment, ces-|
 GFFE/D/ E2 F2- | FEFD EF G2- | G2 FE F4 | z2 F2 F2 F2 | D2 D2 F2 F2 | E2 E2 D3 E | FG A4 G2 | %16
w: tui _ _ _ _ _ _|_ _ _ _ _ _ tour-|* * * ment,|que tu te|tiens,- que tu te|tiens aus- si se-|cre- * * te-|
 A8- | A8 | z8 | z4 z2 A2 | F2 G2 A4 | z4 z2 A2 | F2 G2 A2 A2 | A2 A2 G4 | G4 F2 F2 | F2 A2 G3 F | %26
w: ment|_||de-|dens mon cueur,|de-|dens mon cueur sans|l'o- ser des-|cou- vrir, sans|l'o- ser des- *|
 ED F4 ED | E4 D4- | D4 z4 | z8 | F4 G4 | A4 z2 F2 | G2 A2 B2 A2 | G2 F2 B4- | B2 A2 G2 G2 | %35
w: |cou- vrir,|_||à cel-|le qui|bien te peult se-||* * * cou-|
 F4 z2 d2 | d2 d2 cB AG |: F2 B2 AG FE | DEFD E2 E2 | A3 G/F/ ED F2- | F2 E4 D2- | D2 C2 D2 d2 |1 %42
w: rir, et|à ton mal _ _ _|_ don- * * * *|* * * * ner al-|le- * * * * *||* ge- ment, et|
 d2 d2 cB AG :|2"^#" D2 C2 D4- || D8 |] %45
w: à ton mal _ _ _|_ ge- ment.|_|
V:2
 d8 | B4 c4 | d4 z2 d2 | d4 c4 | A8 | z2 B2 c2 d2 | B2 d3 c A2 | B2 B2 c2 d2 | B2 d3 c A2 | %9
w: He-|las a-|mours, he-|las a-|mours,|d'où vient ces-|tui tour _ _|ment, d'où vient ces-|tui tour- * *|
 B2 d4 c2 | B2 d2 cA Bc | d4 z2 d2 | d2 d2 c2 c2 | B3 c d2 d2 | c4 z2 f2 | f2 f2 d2 d2 | %16
w: ||ment, que|tu te tiens aus-|si se- cre- te-|ment, que|tu te tiens, que|
 f2 f2 e2 e2 | d2 cB AB cB/c/ | d2 f3 e d2- | d2 c2 d2 d2- | d2 B2 c2 d2 | B2 c2 d2 f2 | %22
w: tu te tiens aus-|si se- * cre- * * * *||* te- ment de-|* dens mon cueur,|de- dens _ _|
 d2 e2 f2 f2 | f2 f2 e2 d2- | d2 c2 A2 Bc | de f2 e2 d2- | d2 c2 d4 | G3 A B2 A2 | B4 z4 | B4 c4 | %30
w: _ mon cueur sans|l'o- ser des- *|* cou- vrir, sans _|_ _ _ l'o- *|* * ser|des- * * cou-|vrir,|à cel-|
 d4 z2 B2 | c2 d2 _e2 d2 | c2 c2 B2 c2 | d6 e2 | f2 AB cB B2- | B2 A2 B2 d2 | f2 g2 a2 f2 |: %37
w: le qui|bien te peult se-|* cou- rir, qui|bien te|peult se- * * * *|* cou- rir, et|à ton mal don-|
 a2 gf e2 d2 | A2 F2 G2 AB | c6 A2 | B4 A2 G2 | A4 z2 d2 |1 f2 g2 a2 f2 :|2 A8- || A8 |] %45
w: ner al- * * le-|||* * ge-|ment, et|à ton mal don-|ment.|_|
V:3
 z8 | z8 | A8 | B4 G4- | G2 FE F4 | G4 z4 | z2 D2 F2 F2 | G2 B2 A4 | z2 D2 F2 F2 | G2 B2 A3 G | %10
w: ||He-|las a-||mours,|d'où vient ces-|tui tour- ment,|d'où vient ces-|tui tour- * *|
 F2 B2 G3 A | B2 B2 A2 B2- | B2 AG A2 A2 | F2 B2 B2 B2 | G2 G2 B2 B2 | A2 A2 B4 | z2 c2 c2 c2 | %17
w: |ment, que tu te|_ tiens _ _ aus-|si se- cre- te-|ment, aus- si se-|cre- te- ment|que- tu te|
 A2 A2 c2 c2 | B2 B2 A4 | z4 z2 A2 | B2 G2 F2 F2 | G2 A2 B2 c2 | d2 B2 c2 c2 | c2 c2 B3 A | G4 z4 | %25
w: tiens aus- si se-|cre- te- ment|de-|dens mon cueur, de-|dens mon cueur, de-|dens mon cueur sans|l'o- ser des- cou-|vrir,|
 F4 G4 | A4 z4 | z4 F4 | G4 A4 | z2 F2 G2 A2 | B3 A G2 G2 | F4 z4 | z8 | z4 B4 | c2 d2 _e3 d | %35
w: à cel-|le,|à|cel- le|qui bien te|peult _ se- cou-|rir,||qui|bien te peult _|
 c2 c2 B4- | B4 z2 d2 |: d2 d2 cB AG | FG AB c3 B | A2 A2 G2 F2 | G4 F2 ED | E2 E2 D2 F2 |1 %42
w: se- cou- rir,|_ et|à ton mal _ _ _|_ _ _ _ _ _|* don- ner al-|le- * * *|ge- ment, et à|
 B2 B2 z2 d2 :|2 E2 E2 D4- || D8 |] %45
w: ton mal, et|(le)- ge- ment.|_|
V:4
 z8 | z8 | D,8 | B,,4 C,4 | D,8 | z2 G,2 F,2 D,2 | G,2 G,,2 D,4 | z2 G,2 F,2 D,2 | G,2 G,,2 D,4 | %9
w: ||He-|las a-|mours,|d'où vient ces-|tui tour- ment,|d'où vient ces-|tui tour- ment,|
 z4 A,,4 |"^b" B,,2 B,,2 C,2 E,2 | D,6 B,,2 | D,C, D,E, F,4 | B,,2 B,,2 B,,2 B,,2 | %14
w: d'où|vient ces- tui tour-|ment, que|tu _ _ _ te|tiens, que tu te|
 C,2 C,2 G,,A,, B,,C, | D,E, F,E,/F,/ G,2 G,2 | D,E, F,G, A,2 A,2 | D,2 F,2 F,2 F,2 | %18
w: tiens aus- si _ _ _|_ _ _ _ _ _ se-|cre- * * * * te|ment, que tu te|
 D,2 D,2 F,2 F,2 | E,2 E,2 D,4 | z4 z2 D,2 | _E,2 C,2 B,,2 F,2 | B,2 G,2 F,2 F,2 | F,2 F,2 G,3 F, | %24
w: tiens aus- si se-|cre- te- ment|de-|dens mon cueur, de-|dens mon cueur sans|l'o- ser des- *|
 E,D, E,2 D,4 | z8 | z4 B,,4 | C,4 D,4 | z2 B,,2 C,2 D,2 |"^b" E,2 D,2 C,2 C,2 | B,,4 z4 | z8 | %32
w: * * cou- vrir,||à|cel- le,|qui bien te|peult _ se- cou-|rir,||
 z2 F,2 G,2 A,2 | B,3 A, G,2 G,2 | F,3 E, C,2 _E,2 | F,4 B,,4 | z4 z2 D,2 |: F,2 G,2 A,2 D,2 | %38
w: qui bien te|peut _ _ se-||cou- rir,|et|à ton mal, et|
 D,2 D,2 C,B,, A,,G,, | F,,G,, A,,B,, C,2 D,2 | G,,2 G,,2 A,,2 B,,2 | A,,4 D,4 |1 z4 z2 B,,2 :|2 %43
w: à ton mal _ _ _|_ _ _ _ _ _|don- ner al- le-|ge- ment,|et|
 A,,4 D,4- || D,8 |] %45
w: ge- ment.|_|

